**kern	**kern	**dynam
*part1	*part1	*part1
*staff2	*staff1	*
*I"Piano	*	*
*clefG2	*clefG2	*
*k[b-e-a-]	*k[b-e-a-]	*
=1	=1	=1
.	(8qaan/	.
8r	8bb-')	.
8ee-'L 8gg	4r	.
8g'J 8ee-	.	.
=	=	=
.	(8qaan/	.
*	*8va	*
8r	8bb-'L)	.
.	(8qccc#X/	.
8b-'L 8ff	8ddd')	.
.	(8qeeen/	.
8dd'J 8bb-	8fff'J)	.
=	=	=
.	(8qaaan/	.
8ff' 8ddd	8bbb-')	.
*	*X8va	*
4r	8r	.
.	8r	.
=	=	=
.	(8qff#X/	pp
8r	8gg')	.
8cc'L 8ee-	8r	.
8e-'J 8cc	8r	.
=	=	=
.	(8qff#X/	.
8r	8gg')	.
8cc'L 8ee-	8r	.
8e-'J 8cc	8r	.
=	=	=
.	(8qff#X/	.
8r	8gg'L)	.
.	(8qaa#X/	.
8g'L 8dd	8bbn')	.
.	(8qccc#X/	.
8bn'J 8gg	8ddd'J)	.
=	=	=
.	(8qfff#X/	.
8dd' 8bbn	8ggg')	.
!	!LO:TX:a:i:t=dim.	!
8r;	8r;	.
8r	8r	.
*clefF4	*	*
=	=	=
[4.C [4.G	[4.c [4.e- [4.g	p
=	=	=
*-	*-	*-
!!!system-decoration: {(s1,s2)}
